packages/icons/src/components/Icon/assets/small-solid/email-remove.svg

<svg width="16" height="16" viewBox="0 0 16 16" fill="none" xmlns="http://www.w3.org/2000/svg">
<path d="M1 4.2667C1 3.4935 1.6268 2.8667 2.4 2.8667H12.6667C13.4399 2.8667 14.0667 3.4935 14.0667 4.2667V5.00689C14.0428 5.01536 14.0192 5.02521 13.9958 5.03647L7.83782 8.00931C7.64555 8.10213 7.42144 8.10213 7.22917 8.00931L1.07115 5.03647C1.04772 5.02516 1.02397 5.01527 1 5.00677V4.2667Z" fill="black"/>
<path d="M11.8507 7.62666L14.0667 6.55688V7.59234C13.754 7.67273 13.4582 7.83532 13.2134 8.0801L12.9 8.3935L12.5866 8.0801C12.3727 7.86617 12.1197 7.71503 11.8507 7.62666Z" fill="black"/>
<path d="M9.51474 8.75436L8.44647 9.27008C7.86967 9.54854 7.19732 9.54854 6.62052 9.27008L1 6.55673V10.8C1 11.5732 1.6268 12.2 2.4 12.2H9.45897C9.53936 11.8874 9.70195 11.5916 9.94673 11.3468L10.2601 11.0334L9.94673 10.72C9.41527 10.1885 9.27127 9.41629 9.51474 8.75436Z" fill="black"/>
<path d="M14.795 8.67172C15.0683 8.94509 15.0683 9.38831 14.795 9.66167L13.6566 10.8L14.795 11.9384C15.0683 12.2118 15.0683 12.655 14.795 12.9283C14.5216 13.2017 14.0784 13.2017 13.805 12.9283L12.6667 11.79L11.5283 12.9283C11.2549 13.2017 10.8117 13.2017 10.5384 12.9283C10.265 12.655 10.265 12.2118 10.5384 11.9384L11.6767 10.8L10.5384 9.66167C10.265 9.38831 10.265 8.94509 10.5384 8.67172C10.8117 8.39836 11.2549 8.39836 11.5283 8.67172L12.6667 9.81008L13.805 8.67172C14.0784 8.39836 14.5216 8.39836 14.795 8.67172Z" fill="black"/>
</svg>

<svg xmlns="http://www.w3.org/2000/svg" width="16" height="16" fill="none" viewBox="0 0 16 16">
    <path d="M1 4.267a1.4 1.4 0 0 1 1.4-1.4h10.267a1.4 1.4 0 0 1 1.4 1.4v.74l-.071.03-6.158 2.971a.7.7 0 0 1-.609 0L1.071 5.036 1 5.006zm10.85 3.36 2.217-1.07v1.035c-.313.08-.609.243-.854.488l-.313.313-.313-.313a1.86 1.86 0 0 0-.736-.453M9.515 8.754l-1.069.516a2.1 2.1 0 0 1-1.825 0L1 6.557V10.8a1.4 1.4 0 0 0 1.4 1.4h7.059c.08-.313.243-.608.488-.853l.313-.314-.313-.313a1.87 1.87 0 0 1-.432-1.966m5.28-.082a.7.7 0 0 1 0 .99L13.657 10.8l1.138 1.138a.7.7 0 0 1-.99.99l-1.138-1.138-1.139 1.138a.7.7 0 1 1-.99-.99l1.139-1.138-1.139-1.138a.7.7 0 1 1 .99-.99l1.139 1.138 1.138-1.138a.7.7 0 0 1 .99 0"/>
</svg>
